img/about/calendar.svg

<svg width="21" height="21" viewBox="0 0 21 21" fill="none" xmlns="http://www.w3.org/2000/svg">
<g id="calendar 1" clip-path="url(#clip0_3059_222407)">
<g id="calendar">
<path id="Vector" d="M19.3915 4.83093V7.37409H1.89554V4.83093C1.90193 4.33975 2.10287 3.87117 2.45429 3.52795C2.80571 3.18473 3.27891 2.9949 3.7701 3.0001H5.01981V4.24981C5.01981 4.74698 5.21731 5.22378 5.56886 5.57533C5.92041 5.92688 6.39722 6.12438 6.89438 6.12438C7.39155 6.12438 7.86835 5.92688 8.2199 5.57533C8.57145 5.22378 8.76895 4.74698 8.76895 4.24981V3.0001H12.5181V4.24981C12.5181 4.74698 12.7156 5.22378 13.0671 5.57533C13.4187 5.92688 13.8955 6.12438 14.3926 6.12438C14.8898 6.12438 15.3666 5.92688 15.7182 5.57533C16.0697 5.22378 16.2672 4.74698 16.2672 4.24981V3.0001H17.5169C18.0081 2.9949 18.4813 3.18473 18.8327 3.52795C19.1842 3.87117 19.3851 4.33975 19.3915 4.83093Z" fill="#FFD600"/>
<path id="Vector_2" d="M1.89554 8.62305V18.6645C1.90193 19.1556 2.10287 19.6242 2.45429 19.9675C2.80571 20.3107 3.27891 20.5005 3.7701 20.4953H17.5169C18.0081 20.5005 18.4813 20.3107 18.8327 19.9675C19.1842 19.6242 19.3851 19.1556 19.3915 18.6645V8.62305H1.89554ZM7.51924 17.371C7.51876 17.5366 7.45277 17.6953 7.33569 17.8123C7.21861 17.9294 7.05996 17.9954 6.89438 17.9959H5.64467C5.4791 17.9954 5.32044 17.9294 5.20336 17.8123C5.08628 17.6953 5.02029 17.5366 5.01981 17.371V16.1213C5.02029 15.9557 5.08628 15.7971 5.20336 15.68C5.32044 15.5629 5.4791 15.4969 5.64467 15.4965H6.89438C7.05996 15.4969 7.21861 15.5629 7.33569 15.68C7.45277 15.7971 7.51876 15.9557 7.51924 16.1213V17.371ZM7.51924 12.997C7.51876 13.1626 7.45277 13.3213 7.33569 13.4383C7.21861 13.5554 7.05996 13.6214 6.89438 13.6219H5.64467C5.4791 13.6214 5.32044 13.5554 5.20336 13.4383C5.08628 13.3213 5.02029 13.1626 5.01981 12.997V11.7473C5.02029 11.5817 5.08628 11.4231 5.20336 11.306C5.32044 11.1889 5.4791 11.1229 5.64467 11.1225H6.89438C7.05996 11.1229 7.21861 11.1889 7.33569 11.306C7.45277 11.4231 7.51876 11.5817 7.51924 11.7473V12.997ZM11.8932 17.371C11.8927 17.5366 11.8268 17.6953 11.7097 17.8123C11.5926 17.9294 11.4339 17.9954 11.2684 17.9959H10.0187C9.85308 17.9954 9.69443 17.9294 9.57735 17.8123C9.46027 17.6953 9.39428 17.5366 9.3938 17.371V16.1213C9.39428 15.9557 9.46027 15.7971 9.57735 15.68C9.69443 15.5629 9.85308 15.4969 10.0187 15.4965H11.2684C11.4339 15.4969 11.5926 15.5629 11.7097 15.68C11.8268 15.7971 11.8927 15.9557 11.8932 16.1213V17.371ZM11.8932 12.997C11.8927 13.1626 11.8268 13.3213 11.7097 13.4383C11.5926 13.5554 11.4339 13.6214 11.2684 13.6219H10.0187C9.85308 13.6214 9.69443 13.5554 9.57735 13.4383C9.46027 13.3213 9.39428 13.1626 9.3938 12.997V11.7473C9.39428 11.5817 9.46027 11.4231 9.57735 11.306C9.69443 11.1889 9.85308 11.1229 10.0187 11.1225H11.2684C11.4339 11.1229 11.5926 11.1889 11.7097 11.306C11.8268 11.4231 11.8927 11.5817 11.8932 11.7473V12.997ZM16.2672 12.997C16.2667 13.1626 16.2007 13.3213 16.0837 13.4383C15.9666 13.5554 15.8079 13.6214 15.6424 13.6219H14.3926C14.2271 13.6214 14.0684 13.5554 13.9513 13.4383C13.8343 13.3213 13.7683 13.1626 13.7678 12.997V11.7473C13.7683 11.5817 13.8343 11.4231 13.9513 11.306C14.0684 11.1889 14.2271 11.1229 14.3926 11.1225H15.6424C15.8079 11.1229 15.9666 11.1889 16.0837 11.306C16.2007 11.4231 16.2667 11.5817 16.2672 11.7473V12.997Z" fill="#FFD600"/>
<path id="Vector_3" d="M7.51924 2.99986V4.24957C7.51924 4.41529 7.45341 4.57422 7.33623 4.69141C7.21904 4.80859 7.06011 4.87442 6.89439 4.87442C6.72866 4.87442 6.56973 4.80859 6.45255 4.69141C6.33536 4.57422 6.26953 4.41529 6.26953 4.24957V2.99986C6.26953 2.83413 6.33536 2.6752 6.45255 2.55802C6.56973 2.44083 6.72866 2.375 6.89439 2.375C7.06011 2.375 7.21904 2.44083 7.33623 2.55802C7.45341 2.6752 7.51924 2.83413 7.51924 2.99986Z" fill="#FFD600"/>
<path id="Vector_4" d="M15.0175 2.99986V4.24957C15.0175 4.41529 14.9517 4.57422 14.8345 4.69141C14.7173 4.80859 14.5584 4.87442 14.3926 4.87442C14.2269 4.87442 14.068 4.80859 13.9508 4.69141C13.8336 4.57422 13.7678 4.41529 13.7678 4.24957V2.99986C13.7678 2.83413 13.8336 2.6752 13.9508 2.55802C14.068 2.44083 14.2269 2.375 14.3926 2.375C14.5584 2.375 14.7173 2.44083 14.8345 2.55802C14.9517 2.6752 15.0175 2.83413 15.0175 2.99986Z" fill="#FFD600"/>
</g>
</g>
<defs>
<clipPath id="clip0_3059_222407">
<rect width="19.9954" height="19.9954" fill="white" transform="translate(0.645844 0.501953)"/>
</clipPath>
</defs>
</svg>

<svg width="21" height="21" fill="none" xmlns="http://www.w3.org/2000/svg"><g fill="#FFD600" clip-path="url(#a)"><path d="M19.392 4.83v2.544H1.896V4.831A1.855 1.855 0 0 1 3.77 3h1.25V4.25a1.875 1.875 0 1 0 3.749 0V3h3.75v1.25a1.875 1.875 0 0 0 3.748 0V3h1.25a1.855 1.855 0 0 1 1.875 1.83ZM1.896 8.623v10.042a1.855 1.855 0 0 0 1.874 1.83h13.747a1.855 1.855 0 0 0 1.875-1.83V8.623H1.896Zm5.623 8.748a.626.626 0 0 1-.625.625h-1.25a.627.627 0 0 1-.624-.625v-1.25a.627.627 0 0 1 .625-.624h1.25a.626.626 0 0 1 .624.624v1.25Zm0-4.374a.626.626 0 0 1-.625.625h-1.25a.627.627 0 0 1-.624-.625v-1.25a.627.627 0 0 1 .625-.624h1.25a.626.626 0 0 1 .624.624v1.25Zm4.374 4.374a.626.626 0 0 1-.625.625h-1.25a.627.627 0 0 1-.624-.625v-1.25a.627.627 0 0 1 .625-.624h1.25a.626.626 0 0 1 .624.624v1.25Zm0-4.374a.626.626 0 0 1-.625.625h-1.25a.627.627 0 0 1-.624-.625v-1.25a.627.627 0 0 1 .625-.624h1.25a.626.626 0 0 1 .624.624v1.25Zm4.374 0a.627.627 0 0 1-.625.625h-1.25a.627.627 0 0 1-.624-.625v-1.25a.627.627 0 0 1 .625-.624h1.25a.626.626 0 0 1 .624.624v1.25Z"/><path d="M7.52 3v1.25a.625.625 0 0 1-1.25 0V3a.625.625 0 1 1 1.25 0ZM15.018 3v1.25a.625.625 0 1 1-1.25 0V3a.625.625 0 1 1 1.25 0Z"/></g><defs><clipPath id="a"><path fill="#fff" transform="translate(.646 .502)" d="M0 0h19.995v19.995H0z"/></clipPath></defs></svg>
